X:225 
T:White Pony, The
F:file ID: cre.5/225white_p
B:CRE5.016 (An PÃÂÃÂÃÂÃÂ³naÃÂÃÂÃÂÃÂ­ BÃÂÃÂÃÂÃÂ¡n)
M:6/8
Q:160
R:jig
K:G
D|GAG ABA|GBd g2e|dBG AGE|ABA ABA|
GAG ABA|GBd g2e|dBG AGE|GAG G2:|
d|gag ged|ede g2e| dBG AGE|ABA A2d|
gag ged|ede g2e|dBG AGE|GAG G2d|
gag ged|ede g2e|dBG AGE|ABA ABA|
GAG ABA|GBd g2e|dBG AGE|GAG G3-|G6|]

%%%

